SVG_Azure_Grouped/Deployment/PowerShell.svg

<?xml version="1.0" encoding="UTF-8" standalone="no"?>
<!-- Generated by Microsoft Visio, SVG Export PowerShell.svg Page-1 -->

<svg
   xmlns:dc="http://purl.org/dc/elements/1.1/"
   xmlns:cc="http://creativecommons.org/ns#"
   xmlns:rdf="http://www.w3.org/1999/02/22-rdf-syntax-ns#"
   xmlns:svg="http://www.w3.org/2000/svg"
   xmlns="http://www.w3.org/2000/svg"
   xmlns:sodipodi="http://sodipodi.sourceforge.net/DTD/sodipodi-0.dtd"
   xmlns:inkscape="http://www.inkscape.org/namespaces/inkscape"
   width="0.78446299in"
   height="0.62873578in"
   viewBox="0 0 56.481107 45.26906"
   xml:space="preserve"
   class="st4"
   version="1.1"
   id="svg29"
   sodipodi:docname="PowerShell.svg"
   style="font-size:12px;overflow:visible;color-interpolation-filters:sRGB;fill:none;fill-rule:evenodd;stroke-linecap:square;stroke-miterlimit:3"
   inkscape:version="0.92.5 (2060ec1f9f, 2020-04-08)"><metadata
   id="metadata35"><rdf:RDF><cc:Work
       rdf:about=""><dc:format>image/svg+xml</dc:format><dc:type
         rdf:resource="http://purl.org/dc/dcmitype/StillImage" /></cc:Work></rdf:RDF></metadata><defs
   id="defs33" /><sodipodi:namedview
   pagecolor="#ffffff"
   bordercolor="#666666"
   borderopacity="1"
   objecttolerance="10"
   gridtolerance="10"
   guidetolerance="10"
   inkscape:pageopacity="0"
   inkscape:pageshadow="2"
   inkscape:window-width="640"
   inkscape:window-height="480"
   id="namedview31"
   showgrid="false"
   inkscape:zoom="2.0064424"
   inkscape:cx="37.653427"
   inkscape:cy="13.46369"
   inkscape:window-x="0"
   inkscape:window-y="0"
   inkscape:window-maximized="0"
   inkscape:current-layer="svg29" />
	<style
   type="text/css"
   id="style2">
	<![CDATA[
		.st1 {fill:#0078d7;stroke:none;stroke-linecap:butt;stroke-width:8.93937}
		.st2 {fill:#000000;fill-opacity:0.25;stroke:none;stroke-linecap:butt;stroke-width:8.93937}
		.st3 {fill:#ffffff;stroke:none;stroke-linecap:butt;stroke-width:8.93937}
		.st4 {fill:none;fill-rule:evenodd;font-size:12px;overflow:visible;stroke-linecap:square;stroke-miterlimit:3}
	]]>
	</style>

	<g
   id="g27"
   transform="translate(-8.9389467,-8.9367277)">
		<title
   id="title4">Page-1</title>
		<g
   id="group17145-1"
   transform="translate(8.71833,-34.0157)">
			<title
   id="title6">PowerShell.17145</title>
			<g
   id="group17146-2">
				<title
   id="title8">layer1</title>
				<g
   id="shape17147-3">
					<title
   id="title10">path6</title>
					<path
   d="m 56.68,46.2 -6.37,38.78 a 4.15571,4.28518 0 0 1 -4.14,3.24 H 3.33 C 1.36,88.22 0,86.77 0.25,84.98 L 6.62,46.2 a 3.51981,3.62948 0 0 1 1.16,-2.03 4.47813,4.61766 0 0 1 2.98,-1.21 h 42.83 a 2.91079,3.00148 0 0 1 3,2.15 2.44506,2.52124 0 0 1 0.09,1.09 z"
   class="st1"
   id="path12"
   inkscape:connector-curvature="0"
   style="fill:#0078d7;stroke:none;stroke-width:8.93937016;stroke-linecap:butt" />
				</g>
				<g
   id="shape17148-5"
   transform="translate(7.783,-2.22572)">
					<title
   id="title15">path10</title>
					<path
   d="M 48.81,47.33 42.49,86.37 C 42.38,87.05 42.08,87.7 41.64,88.22 31.66,78.1 10.85,57.09 0,46.4 0.81,45.63 1.87,45.2 2.97,45.19 h 42.84 c 1.37,-0.1 2.61,0.79 3,2.14 z"
   class="st2"
   id="path17"
   inkscape:connector-curvature="0"
   style="fill:#000000;fill-opacity:0.25;stroke:none;stroke-width:8.93937016;stroke-linecap:butt" />
				</g>
				<g
   id="shape17149-7"
   transform="translate(13.035,-5.29135)">
					<title
   id="title20">path8-6</title>
					<path
   d="M 2.07,87.85 A 2.17637,2.24418 0 0 1 0.77,83.8 L 19.16,69.85 5.9,56.98 A 2.16742,2.23495 0 0 1 5.81,53.81 2.19429,2.26265 0 0 1 8.9,53.72 l 15.23,14.7 a 2.16742,2.23495 0 0 1 -0.2,3.44 L 3.36,87.41 a 2.18533,2.25342 0 0 1 -1.29,0.44 z m 24.06,0.37 H 16.12 a 2.2402046,2.31 0 1 1 0,-4.62 h 10.01 a 2.2402046,2.31 0 0 1 0,4.62 z"
   class="st3"
   id="path22"
   inkscape:connector-curvature="0"
   style="fill:#ffffff;stroke:none;stroke-width:8.93937016;stroke-linecap:butt" />
				</g>
			</g>
		</g>
	</g>
</svg>

<?xml version="1.0" encoding="UTF-8" standalone="no"?>
<!DOCTYPE svg PUBLIC "-//W3C//DTD SVG 1.1//EN" "http://www.w3.org/Graphics/SVG/1.1/DTD/svg11.dtd">
<!-- Generated by Microsoft Visio, SVG Export PowerShell.svg Page-1 -->
<svg xmlns="http://www.w3.org/2000/svg" xmlns:xlink="http://www.w3.org/1999/xlink" xmlns:ev="http://www.w3.org/2001/xml-events"
		width="1.03275in" height="1.22522in" viewBox="0 0 74.3577 88.216" xml:space="preserve" color-interpolation-filters="sRGB"
		class="st4">
	<style type="text/css">
	<![CDATA[
		.st1 {fill:#0078d7;stroke:none;stroke-linecap:butt;stroke-width:8.93937}
		.st2 {fill:#000000;fill-opacity:0.25;stroke:none;stroke-linecap:butt;stroke-width:8.93937}
		.st3 {fill:#ffffff;stroke:none;stroke-linecap:butt;stroke-width:8.93937}
		.st4 {fill:none;fill-rule:evenodd;font-size:12px;overflow:visible;stroke-linecap:square;stroke-miterlimit:3}
	]]>
	</style>

	<g>
		<title>Page-1</title>
		<g id="group16752-1" transform="translate(8.71833,-34.0157)">
			<title>PowerShell.16752</title>
			<g id="group16753-2">
				<title>layer1</title>
				<g id="shape16754-3">
					<title>path6</title>
					<path d="M56.68 46.2 L50.31 84.98 A4.15571 4.28518 0 0 1 46.17 88.22 L3.33 88.22 C1.36 88.22 0 86.77 0.25 84.98
								 L6.62 46.2 A3.51981 3.62948 0 0 1 7.78 44.17 A4.47813 4.61766 0 0 1 10.76 42.96 L53.59 42.96 A2.91079
								 3.00148 0 0 1 56.59 45.11 A2.44506 2.52124 0 0 1 56.68 46.2 L56.68 46.2 Z" class="st1"/>
				</g>
				<g id="shape16755-5" transform="translate(7.783,-2.22572)">
					<title>path10</title>
					<path d="M48.81 47.33 L42.49 86.37 C42.38 87.05 42.08 87.7 41.64 88.22 C31.66 78.1 10.85 57.09 0 46.4 C0.81 45.63
								 1.87 45.2 2.97 45.19 L45.81 45.19 C47.18 45.09 48.42 45.98 48.81 47.33 Z" class="st2"/>
				</g>
				<g id="shape16756-7" transform="translate(13.035,-5.29135)">
					<title>path8-6</title>
					<path d="M2.07 87.85 A2.17637 2.24418 0 0 1 0.77 83.8 L19.16 69.85 L5.9 56.98 A2.16742 2.23495 0 0 1 5.81 53.81
								 A2.19429 2.26265 0 0 1 8.9 53.72 L24.13 68.42 A2.16742 2.23495 0 0 1 23.93 71.86 L3.36 87.41 A2.18533
								 2.25342 0 0 1 2.07 87.85 L2.07 87.85 ZM26.13 88.22 L16.12 88.22 A2.23907 2.30883 0 1 1 16.12 83.6
								 L26.13 83.6 A2.23907 2.30883 0 0 1 26.13 88.22 Z" class="st3"/>
				</g>
			</g>
		</g>
	</g>
</svg>
